src/images/sort.svg

<svg width="75" height="75" viewBox="0 0 75 75" fill="none" xmlns="http://www.w3.org/2000/svg">
<path d="M30 41.25H3.75C2.75544 41.25 1.80161 41.6451 1.09835 42.3484C0.395088 43.0516 0 44.0054 0 45V71.25C0 72.2446 0.395088 73.1984 1.09835 73.9017C1.80161 74.6049 2.75544 75 3.75 75H30C30.9946 75 31.9484 74.6049 32.6516 73.9017C33.3549 73.1984 33.75 72.2446 33.75 71.25V45C33.75 44.0054 33.3549 43.0516 32.6516 42.3484C31.9484 41.6451 30.9946 41.25 30 41.25ZM26.25 67.5H7.5V48.75H26.25V67.5ZM71.25 0H45C44.0054 0 43.0516 0.395088 42.3484 1.09835C41.6451 1.80161 41.25 2.75544 41.25 3.75V30C41.25 30.9946 41.6451 31.9484 42.3484 32.6516C43.0516 33.3549 44.0054 33.75 45 33.75H71.25C72.2446 33.75 73.1984 33.3549 73.9017 32.6516C74.6049 31.9484 75 30.9946 75 30V3.75C75 2.75544 74.6049 1.80161 73.9017 1.09835C73.1984 0.395088 72.2446 0 71.25 0V0ZM67.5 26.25H48.75V7.5H67.5V26.25ZM71.25 41.25H45C44.0054 41.25 43.0516 41.6451 42.3484 42.3484C41.6451 43.0516 41.25 44.0054 41.25 45V71.25C41.25 72.2446 41.6451 73.1984 42.3484 73.9017C43.0516 74.6049 44.0054 75 45 75H71.25C72.2446 75 73.1984 74.6049 73.9017 73.9017C74.6049 73.1984 75 72.2446 75 71.25V45C75 44.0054 74.6049 43.0516 73.9017 42.3484C73.1984 41.6451 72.2446 41.25 71.25 41.25ZM67.5 67.5H48.75V48.75H67.5V67.5ZM30 0H3.75C2.75544 0 1.80161 0.395088 1.09835 1.09835C0.395088 1.80161 0 2.75544 0 3.75V30C0 30.9946 0.395088 31.9484 1.09835 32.6516C1.80161 33.3549 2.75544 33.75 3.75 33.75H30C30.9946 33.75 31.9484 33.3549 32.6516 32.6516C33.3549 31.9484 33.75 30.9946 33.75 30V3.75C33.75 2.75544 33.3549 1.80161 32.6516 1.09835C31.9484 0.395088 30.9946 0 30 0V0ZM26.25 26.25H7.5V7.5H26.25V26.25Z" fill="white"/>
</svg>

<?xml version="1.0" encoding="utf-8"?>
<!-- Generator: Adobe Illustrator 16.0.0, SVG Export Plug-In . SVG Version: 6.00 Build 0)  -->
<!DOCTYPE svg PUBLIC "-//W3C//DTD SVG 1.1//EN" "http://www.w3.org/Graphics/SVG/1.1/DTD/svg11.dtd">
<svg version="1.1" id="圖層_1" xmlns="http://www.w3.org/2000/svg" xmlns:xlink="http://www.w3.org/1999/xlink" x="0px" y="0px"
	 width="75px" height="75px" viewBox="0 0 75 75" enable-background="new 0 0 75 75" xml:space="preserve">
<path fill="#333333" d="M30,41.25H3.75c-0.995,0-1.948,0.395-2.652,1.098C0.395,43.052,0,44.006,0,45v26.25
	c0,0.994,0.395,1.948,1.098,2.652C1.802,74.605,2.755,75,3.75,75H30c0.995,0,1.948-0.395,2.651-1.098
	c0.704-0.704,1.099-1.658,1.099-2.652V45c0-0.994-0.395-1.948-1.099-2.652C31.948,41.645,30.995,41.25,30,41.25z M26.25,67.5H7.5
	V48.75h18.75V67.5z M71.25,0H45c-0.994,0-1.948,0.395-2.651,1.098C41.645,1.802,41.25,2.755,41.25,3.75V30
	c0,0.995,0.395,1.948,1.099,2.652c0.703,0.703,1.657,1.098,2.651,1.098h26.25c0.994,0,1.948-0.395,2.652-1.098
	C74.605,31.948,75,30.995,75,30V3.75c0-0.995-0.395-1.948-1.098-2.652C73.198,0.395,72.244,0,71.25,0L71.25,0z M67.5,26.25H48.75
	V7.5H67.5V26.25z M71.25,41.25H45c-0.994,0-1.948,0.395-2.651,1.098C41.645,43.052,41.25,44.006,41.25,45v26.25
	c0,0.994,0.395,1.948,1.099,2.652C43.052,74.605,44.006,75,45,75h26.25c0.994,0,1.948-0.395,2.652-1.098
	C74.605,73.198,75,72.244,75,71.25V45c0-0.994-0.395-1.948-1.098-2.652C73.198,41.645,72.244,41.25,71.25,41.25z M67.5,67.5H48.75
	V48.75H67.5V67.5z M30,0H3.75C2.755,0,1.802,0.395,1.098,1.098C0.395,1.802,0,2.755,0,3.75V30c0,0.995,0.395,1.948,1.098,2.652
	c0.704,0.703,1.657,1.098,2.652,1.098H30c0.995,0,1.948-0.395,2.651-1.098c0.704-0.704,1.099-1.657,1.099-2.652V3.75
	c0-0.995-0.395-1.948-1.099-2.652C31.948,0.395,30.995,0,30,0L30,0z M26.25,26.25H7.5V7.5h18.75V26.25z"/>
</svg>
